public/assests/icons/grill.svg

<svg width="26" height="26" viewBox="0 0 26 26" fill="none" xmlns="http://www.w3.org/2000/svg">
<path d="M16.6128 9.62168L16.6128 9.62161L16.6117 9.6145C16.2824 7.41852 15.8972 4.85029 13.0651 2.61455C11.5102 1.38702 9.89303 0.75 8.26071 0.75C5.29128 0.75 3.42008 2.84647 3.32181 2.95936C3.24564 3.04441 2.49367 3.89428 1.82281 5.20801C1.14851 6.52847 0.545533 8.3385 0.816245 10.3205C1.14741 12.7458 2.69766 14.8223 5.36134 16.5032L5.36118 16.5034L5.37151 16.5093L5.42211 16.5379L5.42194 16.5382L5.43357 16.544C5.54041 16.5974 6.8409 17.2421 8.30176 17.9317C9.75447 18.6174 11.3913 19.3598 12.1575 19.5977L12.1576 19.5978C12.8435 19.8105 13.4213 19.9144 13.9668 19.9144C14.3967 19.9144 14.801 19.8447 15.1795 19.7089L17.6922 21.2959C17.6471 21.7281 17.6328 22.3458 17.7911 22.9715C17.9715 23.6849 18.3801 24.4189 19.2263 24.8849C19.6607 25.1242 20.148 25.2498 20.6434 25.25H20.6435C21.3529 25.25 22.055 24.9932 22.6039 24.4953C23.22 23.9364 23.53 23.1782 23.493 22.3874C23.9713 22.2394 24.5444 21.9551 24.9112 21.4062L24.9115 21.4058C25.1972 20.9764 25.4293 20.2583 25.0574 19.233C24.6719 18.1672 23.8842 17.6426 23.0361 17.4383C22.2514 17.2492 21.4125 17.3316 20.7676 17.4922L18.5438 15.741C18.6678 14.9958 18.4779 14.2761 17.9784 13.6588C17.0513 12.51 16.8412 11.1478 16.6128 9.62168ZM15.9077 16.9236L15.8731 16.9511L15.8501 16.9888L15.7963 17.0767L15.7954 17.078C15.465 17.6258 15.1223 17.914 14.8155 18.0685C14.5077 18.2234 14.2157 18.2541 13.9676 18.2541C13.6068 18.2541 13.1904 18.1805 12.6463 18.0122C11.9914 17.809 10.4872 17.1282 9.07706 16.4628C7.70116 15.8135 6.43954 15.1909 6.20539 15.0753C3.94963 13.642 2.71178 11.9658 2.45533 10.1023L2.45532 10.1022C2.2388 8.53242 2.74733 7.03611 3.3288 5.91397C3.6184 5.35507 3.92302 4.89497 4.15697 4.5728C4.27385 4.41186 4.37281 4.28571 4.44304 4.19928C4.51386 4.11213 4.55458 4.06645 4.55453 4.06651L4.55455 4.06652L4.55686 4.06391L4.55693 4.06384C4.56291 4.05719 4.93328 3.64526 5.57922 3.23412C6.23242 2.81838 7.15515 2.4111 8.26124 2.4111C9.49011 2.4111 10.7619 2.90765 12.0439 3.91999C14.3556 5.74548 14.6527 7.70551 14.9778 9.86966C14.9778 9.86967 14.9778 9.86969 14.9778 9.8697L14.9812 9.89247C15.2196 11.4812 15.477 13.1969 16.6945 14.705L16.6949 14.7054C16.7977 14.8322 16.8907 14.9812 16.9213 15.1707C16.9512 15.3565 16.9259 15.6121 16.7348 15.9607L16.7347 15.961C16.4873 16.4136 16.1219 16.7401 15.9987 16.8502C15.9947 16.8538 15.9911 16.857 15.9876 16.8601L15.9876 16.8601L15.9077 16.9236ZM16.8891 14.548C17.1213 14.8343 17.3793 15.3051 16.954 16.0809L16.8891 14.548ZM21.6834 21.659L21.9325 21.68L18.9014 20.3936L19.0349 20.1823L19.0345 20.182C19.0345 20.182 19.0344 20.182 19.0343 20.1819L16.661 18.6833C16.837 18.4877 16.9964 18.2775 17.1374 18.0547C17.3939 17.8236 17.6272 17.5682 17.8344 17.2921L20.0822 19.0617L20.0833 19.0625C20.1921 19.1472 20.3201 19.2036 20.4561 19.2265C20.592 19.2495 20.7315 19.2382 20.862 19.1938L20.862 19.1938L20.8658 19.1925C20.9038 19.1788 21.4699 18.9871 22.0844 18.985C22.7022 18.9828 23.2747 19.166 23.5043 19.7999L23.5045 19.8005C23.6382 20.1667 23.6097 20.3731 23.5393 20.48C23.4561 20.6054 23.2705 20.7133 23.031 20.7908C22.8019 20.8648 22.5748 20.8947 22.4734 20.8996C22.3401 20.9051 22.2101 20.9429 22.0946 21.0097C21.9788 21.0766 21.8809 21.1707 21.8094 21.2838C21.7378 21.3969 21.6946 21.5256 21.6834 21.659Z" fill="#FFB577" stroke="#FFB577" stroke-width="0.5"/>
</svg>

<svg width="26" height="26" fill="none" xmlns="http://www.w3.org/2000/svg"><path d="m16.613 9.622-.001-.008c-.33-2.195-.715-4.764-3.547-7C11.51 1.388 9.893.75 8.261.75c-2.97 0-4.84 2.096-4.94 2.21a11.25 11.25 0 0 0-1.498 2.248C1.149 6.528.546 8.338.816 10.32c.331 2.426 1.882 4.502 4.545 6.183l.01.006.051.029.012.006c.106.053 1.407.698 2.868 1.388 1.452.685 3.09 1.428 3.856 1.666.686.213 1.263.316 1.809.316.43 0 .834-.07 1.213-.205l2.512 1.587c-.045.432-.06 1.05.1 1.675.18.714.588 1.448 1.434 1.914.435.24.922.365 1.417.365.71 0 1.412-.257 1.96-.755a2.65 2.65 0 0 0 .89-2.108c.478-.148 1.051-.432 1.418-.98v-.001c.286-.43.518-1.148.146-2.173-.385-1.066-1.173-1.59-2.02-1.795-.786-.189-1.624-.106-2.27.054l-2.223-1.751c.124-.745-.066-1.465-.566-2.082-.927-1.149-1.137-2.511-1.365-4.037Zm-.705 7.302-.035.027-.023.038-.054.088v.001c-.331.548-.674.836-.98.99-.308.155-.6.186-.848.186-.361 0-.778-.074-1.322-.242-.655-.203-2.159-.884-3.569-1.55a191.281 191.281 0 0 1-2.872-1.387c-2.255-1.433-3.493-3.11-3.75-4.973-.216-1.57.292-3.066.874-4.188a10.637 10.637 0 0 1 1.114-1.715 4.23 4.23 0 0 1 .112-.132l.002-.003c.006-.007.376-.419 1.022-.83.653-.416 1.576-.823 2.682-.823 1.23 0 2.5.497 3.783 1.509 2.312 1.825 2.609 3.786 2.934 5.95l.003.022c.239 1.59.496 3.305 1.714 4.813a.983.983 0 0 1 .226.466c.03.186.005.441-.186.79-.248.453-.613.78-.736.89a1.826 1.826 0 0 1-.011.01l-.08.063Zm.981-2.376c.232.286.49.757.065 1.533l-.065-1.533Zm4.794 7.111.25.021-3.032-1.286.134-.212-2.374-1.499c.176-.195.335-.405.476-.628.257-.231.49-.487.697-.763l2.248 1.77h.001a.832.832 0 0 0 .779.132l.004-.002a4.177 4.177 0 0 1 1.218-.207c.618-.002 1.19.181 1.42.815.134.367.106.573.035.68-.083.125-.269.233-.508.31-.23.075-.456.105-.558.11a.825.825 0 0 0-.79.759Z" fill="#FFB577" stroke="#FFB577" stroke-width=".5"/></svg>
